X: 1
T: Glasgow Caledonian Strathspey and Reel Society
C: Angus Fitchet
R: strathspey
N: Also played as a reel
B: Hugh Foss, "The ANGUS FITCHET Album" 1954
Z: 2010 John Chambers <jc:trillian.mit.edu>
M: C
L: 1/16
K: F
C \
| "F"F3A c3B AF3 F3C | "Bb"B,3B "F"A,3A "C7"GG,3 G,3E \
| "F"F3A c3A "Bb"Bd3 "F"c3f | "Gm"dcBA "C7"G3c "F"AF3 F3 :|
B \
| "F"A3c "C7"B3d "F"cF3 f3e | "Bb"d3c "F"BAGF "C7"EG3 G3B \
| "F"A3c "Gm"B3d "Am"c3e "Bb"d3f | "C7"efg2 c3b "F"a3f f3 |]
d \
| "F"cF3 f3e "Bb"d2c2 "F"AF3 | "Bb"B3A "G7"G3F "C"EC3 C3A, \
| "C7"(3B,2C2D2 "F"(3C2D2E2 "Bb"(3D2E2F2 "C7"(3G2A2B2 | "C7"c3e g3b "F"af3 f3 |]
